symbols/web/cached/materialsymbolsoutlined/cached_gradN25_48px.svg

<svg xmlns="http://www.w3.org/2000/svg" height="48" width="48"><path d="M24.05 39.9q-6.5 0-11.15-4.675T8.25 24.05V21.7L4.2 25.75l-1.85-1.9 7.35-7.3 7.3 7.3-1.85 1.9-4.05-4.05v2.35q0 5.35 3.825 9.175 3.825 3.825 9.125 3.825 1.45 0 2.725-.25 1.275-.25 2.425-.75l2.05 2.05q-1.75 1-3.55 1.4-1.8.4-3.65.4Zm14.35-8.4-7.35-7.35 1.95-1.9 3.95 3.95v-2.1q0-5.4-3.8-9.2-3.8-3.8-9.15-3.8-1.4 0-2.7.25-1.3.25-2.45.65L16.8 9.95Q18.6 9 20.375 8.6 22.15 8.2 24 8.2q6.5 0 11.175 4.675Q39.85 17.55 39.85 24.1v2.2l4-4 1.9 1.85Z"/></svg>

<svg xmlns="http://www.w3.org/2000/svg" height="48" width="48"><path d="M9.7 16.55 17 23.85 15.15 25.75 11.1 21.7V24.05Q11.1 29.4 14.925 33.225Q18.75 37.05 24.05 37.05Q25.5 37.05 26.775 36.8Q28.05 36.55 29.2 36.05L31.25 38.1Q29.5 39.1 27.7 39.5Q25.9 39.9 24.05 39.9Q17.55 39.9 12.9 35.225Q8.25 30.55 8.25 24.05V21.7L4.2 25.75L2.35 23.85ZM38.4 31.5 31.05 24.15 33 22.25 36.95 26.2V24.1Q36.95 18.7 33.15 14.9Q29.35 11.1 24 11.1Q22.6 11.1 21.3 11.35Q20 11.6 18.85 12L16.8 9.95Q18.6 9 20.375 8.6Q22.15 8.2 24 8.2Q30.5 8.2 35.175 12.875Q39.85 17.55 39.85 24.1V26.3L43.85 22.3L45.75 24.15Z"/></svg>
